src/gui/emoticons/alien.svg

<svg xmlns="http://www.w3.org/2000/svg" xmlns:xlink="http://www.w3.org/1999/xlink" width="16pt" height="16pt" version="1.1" viewBox="0 0 16 16"><defs><radialGradient id="radial0" cx="64.538" cy="47.344" r="55.854" fx="64.538" fy="47.344" gradientTransform="matrix(0,0.125,-0.128337,0,14.14375,-2.14925)" gradientUnits="userSpaceOnUse"><stop offset="0" style="stop-color:#eceff1;stop-opacity:1"/><stop offset=".186" style="stop-color:#e8ecee;stop-opacity:1"/><stop offset=".369" style="stop-color:#dce2e6;stop-opacity:1"/><stop offset=".551" style="stop-color:#c9d2d7;stop-opacity:1"/><stop offset=".73" style="stop-color:#adbcc3;stop-opacity:1"/><stop offset=".88" style="stop-color:#90a4ae;stop-opacity:1"/></radialGradient><filter id="alpha" width="100%" height="100%" x="0%" y="0%" filterUnits="objectBoundingBox"><feColorMatrix in="SourceGraphic" type="matrix" values="0 0 0 0 1 0 0 0 0 1 0 0 0 0 1 0 0 0 1 0"/></filter><mask id="mask0"><g filter="url(#alpha)"><rect width="16" height="16" x="0" y="0" style="fill:#000;fill-opacity:.2;stroke:none"/></g></mask><clipPath id="clip1"><rect width="16" height="16" x="0" y="0"/></clipPath><g id="surface5" clip-path="url(#clip1)"><path style="stroke:none;fill-rule:nonzero;fill:#000;fill-opacity:1" d="M 8 1.070312 C 9.570312 1.070312 11.199219 1.714844 12.46875 2.84375 C 13.761719 3.992188 14.5 5.496094 14.5 6.976562 C 14.5 8.355469 13.476562 10.296875 11.757812 12.171875 C 10.195312 13.878906 8.601562 14.9375 8.019531 14.9375 C 7.566406 14.9375 5.988281 13.953125 4.320312 12.167969 C 2.527344 10.246094 1.5 8.355469 1.5 6.976562 C 1.5 5.496094 2.238281 3.992188 3.53125 2.847656 C 4.800781 1.71875 6.429688 1.070312 8 1.070312 M 8 0.570312 C 4.53125 0.570312 1 3.507812 1 6.976562 C 1 10.449219 6.542969 15.4375 8.019531 15.4375 C 9.667969 15.4375 15 10.449219 15 6.976562 C 15 3.507812 11.46875 0.570312 8 0.570312 Z M 8 0.570312"/></g><linearGradient id="linear0" x1="36.576" x2="36.576" y1="81.167" y2="45.665" gradientTransform="matrix(0.125,0,0,0.125,0,0)" gradientUnits="userSpaceOnUse"><stop offset="0" style="stop-color:#414042;stop-opacity:1"/><stop offset=".344" style="stop-color:#29292a;stop-opacity:1"/><stop offset="1" style="stop-color:#000;stop-opacity:1"/></linearGradient><linearGradient id="linear1" x1="91.364" x2="91.364" y1="83.167" y2="47.642" gradientTransform="matrix(0.125,0,0,0.125,0,0)" gradientUnits="userSpaceOnUse"><stop offset="0" style="stop-color:#414042;stop-opacity:1"/><stop offset=".344" style="stop-color:#29292a;stop-opacity:1"/><stop offset="1" style="stop-color:#000;stop-opacity:1"/></linearGradient></defs><g id="surface1"><path style="stroke:none;fill-rule:nonzero;fill:url(#radial0)" d="M 8 0.570312 C 4.53125 0.570312 1 3.507812 1 6.976562 C 1 10.449219 6.542969 15.4375 8.019531 15.4375 C 9.667969 15.4375 15 10.449219 15 6.976562 C 15 3.507812 11.46875 0.570312 8 0.570312 Z M 8 0.570312"/><use mask="url(#mask0)" xlink:href="#surface5"/><path style="stroke:none;fill-rule:nonzero;fill:url(#linear0)" d="M 6.757812 10.195312 C 6.382812 10.679688 4.542969 10.679688 3.148438 9.398438 C 1.886719 8.238281 1.96875 6.195312 2.382812 5.78125 C 2.800781 5.367188 4.78125 5.359375 5.988281 6.578125 C 7.199219 7.796875 7.214844 9.738281 6.757812 10.195312 Z M 6.757812 10.195312"/><path style="stroke:none;fill-rule:nonzero;fill:url(#linear1)" d="M 10.011719 6.574219 C 11.21875 5.359375 13.199219 5.371094 13.617188 5.78125 C 14.03125 6.191406 14.058594 8.171875 12.851562 9.382812 C 11.640625 10.59375 9.703125 10.625 9.242188 10.171875 C 8.785156 9.71875 8.800781 7.785156 10.011719 6.574219 Z M 10.011719 6.574219"/><path style="stroke:none;fill-rule:nonzero;fill:#242424;fill-opacity:1" d="M 8 12.792969 C 6.828125 12.792969 5.992188 12.105469 5.742188 11.722656 C 5.644531 11.574219 5.625 11.414062 5.691406 11.292969 C 5.738281 11.203125 5.828125 11.148438 5.9375 11.148438 C 5.972656 11.148438 6.007812 11.15625 6.046875 11.167969 C 6.636719 11.351562 7.152344 11.621094 8 11.621094 C 8.855469 11.621094 9.363281 11.351562 9.953125 11.167969 C 9.992188 11.152344 10.027344 11.148438 10.066406 11.148438 C 10.171875 11.148438 10.261719 11.203125 10.3125 11.292969 C 10.375 11.414062 10.359375 11.574219 10.261719 11.722656 C 10.007812 12.105469 9.171875 12.792969 8 12.792969 Z M 8 12.792969"/></g></svg>

<svg xmlns="http://www.w3.org/2000/svg" xmlns:xlink="http://www.w3.org/1999/xlink" width="16pt" height="16pt" viewBox="0 0 16 16"><defs><linearGradient id="f" x1="36.576" x2="36.576" y1="81.167" y2="45.665" gradientTransform="scale(.125)" gradientUnits="userSpaceOnUse"><stop offset="0" style="stop-color:#414042;stop-opacity:1"/><stop offset=".344" style="stop-color:#29292a;stop-opacity:1"/><stop offset="1" style="stop-color:#000;stop-opacity:1"/></linearGradient><linearGradient id="g" x1="91.364" x2="91.364" y1="83.167" y2="47.642" gradientTransform="scale(.125)" gradientUnits="userSpaceOnUse"><stop offset="0" style="stop-color:#414042;stop-opacity:1"/><stop offset=".344" style="stop-color:#29292a;stop-opacity:1"/><stop offset="1" style="stop-color:#000;stop-opacity:1"/></linearGradient><radialGradient id="c" cx="64.538" cy="47.344" r="55.854" fx="64.538" fy="47.344" gradientTransform="matrix(0 .125 -.12834 0 14.144 -2.15)" gradientUnits="userSpaceOnUse"><stop offset="0" style="stop-color:#eceff1;stop-opacity:1"/><stop offset=".186" style="stop-color:#e8ecee;stop-opacity:1"/><stop offset=".369" style="stop-color:#dce2e6;stop-opacity:1"/><stop offset=".551" style="stop-color:#c9d2d7;stop-opacity:1"/><stop offset=".73" style="stop-color:#adbcc3;stop-opacity:1"/><stop offset=".88" style="stop-color:#90a4ae;stop-opacity:1"/></radialGradient><clipPath id="b"><path d="M0 0h16v16H0z"/></clipPath><filter id="a" width="100%" height="100%" x="0%" y="0%" filterUnits="objectBoundingBox"><feColorMatrix in="SourceGraphic" values="0 0 0 0 1 0 0 0 0 1 0 0 0 0 1 0 0 0 1 0"/></filter><mask id="d"><g filter="url(#a)"><path d="M0 0h16v16H0z" style="fill:#000;fill-opacity:.2;stroke:none"/></g></mask><g id="e" clip-path="url(#b)"><path d="M8 1.07c1.57 0 3.2.645 4.469 1.774C13.762 3.992 14.5 5.496 14.5 6.977c0 1.378-1.023 3.32-2.742 5.195-1.563 1.707-3.156 2.765-3.738 2.765-.454 0-2.032-.984-3.7-2.769C2.527 10.246 1.5 8.355 1.5 6.977c0-1.48.738-2.985 2.031-4.13C4.801 1.72 6.43 1.07 8 1.07m0-.5c-3.469 0-7 2.938-7 6.407 0 3.472 5.543 8.46 7.02 8.46 1.648 0 6.98-4.988 6.98-8.46C15 3.507 11.469.57 8 .57m0 0" style="stroke:none;fill-rule:nonzero;fill:#000;fill-opacity:1"/></g></defs><path d="M8 .57c-3.469 0-7 2.938-7 6.407 0 3.472 5.543 8.46 7.02 8.46 1.648 0 6.98-4.988 6.98-8.46C15 3.507 11.469.57 8 .57m0 0" style="stroke:none;fill-rule:nonzero;fill:url(#c)"/><use xlink:href="#e" mask="url(#d)"/><path d="M6.758 10.195c-.375.485-2.215.485-3.61-.797-1.261-1.16-1.18-3.203-.765-3.617.418-.414 2.398-.422 3.605.797 1.211 1.219 1.227 3.16.77 3.617m0 0" style="stroke:none;fill-rule:nonzero;fill:url(#f)"/><path d="M10.012 6.574c1.207-1.215 3.187-1.203 3.605-.793.414.41.442 2.39-.765 3.602-1.211 1.21-3.149 1.242-3.61.789-.457-.453-.441-2.387.77-3.598m0 0" style="stroke:none;fill-rule:nonzero;fill:url(#g)"/><path d="M8 12.793c-1.172 0-2.008-.688-2.258-1.07-.097-.149-.117-.309-.05-.43a.27.27 0 0 1 .245-.145.4.4 0 0 1 .11.02c.59.184 1.105.453 1.953.453.855 0 1.363-.27 1.953-.453a.3.3 0 0 1 .113-.02c.106 0 .196.055.246.145.063.121.047.281-.05.43-.254.382-1.09 1.07-2.262 1.07m0 0" style="stroke:none;fill-rule:nonzero;fill:#242424;fill-opacity:1"/></svg>
